X:1
T:O Mio Babbino Caro for solo piano
T:O Mio Babbino Caro
T:for solo piano arr. Jeron Joseph
T:Original song by Giacomo Puccini
C:Giaccomo Puccini
%%score { ( 1 4 ) | ( 2 3 ) }
L:1/8
Q:1/4=63
M:3/4
K:C
V:1 treble nm="Piano" snm="Pno."
V:4 treble 
V:2 bass 
V:3 bass 
V:1
"^Intro Larghetto" e2 | !arpeggio![Gcg]4 eA | [Gd]4 c2 | [cg]4 [Gd]2 | [Fc]4 [FGB]C | %5
 [A,CG]2 [CA]2 BD |xG,CG E2 | %7
 G2 G,/4B,/4D/4G/4G/4B/4d/4g/4!8va(! g/4b/4d'/4g'/4g'/4b'/4d''/4g''/4 | %8
 g''/4d''/4b'/4g'/4g'/4d'/4b/4g/4!8va)! g/4d/4B/4G/4G/4D/4B,/4G,/4 G,[I:staff +1]D, || %9
[K:G][Q:1/4=76]"^Adagietto"[I:staff -1] [B,G]2 [B,G]2 [B,G]2 | [DB]4 [B,F]2 | [G,B,E]6 | [G,B,D]6 | %13
 [B,G]2 [DA]2 [FB]2 | [EG]4 g2 | [Gd]6 | d4 B2 | [Fd]4 A2 | [Ec]4 BC | [B,G]6 | G6 | %21
 !arpeggio![B,^CEG]2 [CFA]2 [EGB]2 | [^CEG]4 [CF]2 | [DA]6 | [=CA]4 D2 | [B,G]6 | %26
 B[I:staff +1]B,[I:staff -1]G[I:staff +1]B,[I:staff -1] F2 | [G,E]6 | [G,D]6 | [B,G]2 [DA]2 [FB]2 | %30
 [EG]4 g2 | [Bd]6 | [Gd]4 [Ee]G | !arpeggio![Gceg]4"_dim." [EGe]2 | [DFd]4 [Cc]F | %35
 !arpeggio![DFBd]6 | !arpeggio![B,EGB]6 | [G,CEG]2 [CEA]2 [CEGB]2 | [G,CEG]4 [A,E]A, | [B,G]6 | %40
 G4 [Ee]2 | !arpeggio![Gceg]4 [EGe]2 | [DFd]4 [Cc]F | !arpeggio![Gdg]4 [Gd]2 | [Ec]4 [EB]2 | %45
!>(! !arpeggio![EAe]6 | e4 [Ec]2!>)! |"_cresc." PB6 | [CA]6 | %49
 [B,G]2 G,/4B,/4D/4G/4G/4B/4d/4g/4!8va(! g/4b/4d'/4g'/4g'/4b'/4d''/4g''/4 | %50
 g''/4d''/4b'/4g'/4g'/4d'/4b/4g/4!8va)! g/4d/4B/4G/4G/4D/4B,/4G,/4{F,} (7:4:7(F,/B,/D/F/D/B,/F,/) | %51
 E,/4G,/4B,/4E/4E/4G/4B/4e/4 e/4B/4G/4E/4E/4B,/4G,/4E,/4 (7:4:7(E,/G,/B,/E/B,/G,/E,/) | %52
 D,/4G,/4B,/4D/4D/4G/4B/4d/4 d/4B/4G/4D/4D/4B,/4G,/4D,/4 G,D |"_meno  " [GBg]2 [Aa]2 [Bdb]2 | %54
 [GBg]4 [gg']2 | [dgbd']2 G,/4B,/4D/4G/4G/4B/4d/4g/4!8va(! g/4b/4d'/4g'/4g'/4b'/4d''/4g''/4 | %56
 g''/4d''/4b'/4g'/4g'/4d'/4b/4g/4!8va)!!<(! g/4d/4B/4G/4G/4D/4B,/4G,/4 G,[I:staff +1]D,!<)! | %57
[Q:1/4=69]"^poco rit."[I:staff -1] !arpeggio![G,CEG]2 [A,CEA]2 [B,EGB]2 |!>(! [G,CEG]4 E2 | %59
[Q:1/4=51]"^più lento" !arpeggio![G,B,G]6!>)! |!8va(! !arpeggio!!fermata![g'b'g'']6!8va)! |] %61
V:2
 z2 |!ped! A,,E,CE CA,!ped-up! |!ped![xG,D]G,D G2 G,!ped-up! |!ped![xC,]C,D,E, G,,D,!ped-up! | %4
!ped! [F,,C,]A,C F3!ped-up! |!ped!xA,, F,2 D,2!ped-up! |!ped! [E,,C,]6!ped-up! | %7
!ped! G,,,D,, B,,D, B,D | GD B,G, x2!ped-up! ||[K:G]!ped! G,,D, G,D,G,D, | %10
 G,,D, G,D,B,,D,!ped-up! |!ped! [B,,,B,,]E, G,E,G,E,!ped-up! |!ped! B,,D, G,D,G,D,!ped-up! | %13
!ped! G,,D, G,D,F,D,!ped-up! |!ped! [G,,E,]G,B, E3!ped-up! | %15
!ped! [G,,B,]D, B,D[I:staff -1]G[I:staff +1]D | B,D G,B, D,B,!ped-up! | %17
!ped! D,,A,, F,A,D,A,!ped-up! |!ped! A,,E,C E3!ped-up! |!ped! E,,B,, G,B,EB, | %20
 G,B, E,G, [B,,B,]E!ped-up! |!ped! !arpeggio![A,,E,G,]E, G,E,G,E,!ped-up! | %22
!ped! [A,,G,]E, G,E,G,E,!ped-up! |!ped! D,,A,, F,A,DA, | F,A, D,A, C,A,!ped-up! | %25
!ped! G,,D, G,A,B,D!ped-up! |!ped! G,,D, G,D,B,,[D,F,]!ped-up! | %27
!ped! [B,,,B,,]E, G,E,G,E,!ped-up! |!ped! [B,,,B,,]D, G,D,G,D,!ped-up! | %29
!ped! G,,D, G,D,G,F,!ped-up! |!ped! [G,,E,]G,B, E3!ped-up! | %31
!ped! G,,D, B,D[I:staff -1]G[I:staff +1]D | B,DG, D3!ped-up! |!ped! C,,G,, E,G,CG,!ped-up! | %34
!ped! C,,A,,D, F,3!ped-up! |!ped! B,,,F,, D,F,B,D!ped-up! |!ped! E,,B,, G,B,EB,!ped-up! | %37
!ped! C,,G,, E,C,G,E,!ped-up! |!ped! A,,,E,,C, E,3!ped-up! |!ped! E,,B,, G,B,EB, | %40
 G,B,E,!mf! G,3!ped-up! |!ped! C,,G,, E,G,CG,!ped-up! |!ped! C,,A,,F, D3!ped-up! | %43
!ped! [B,,,D,]G, A,B,D,A,!ped-up! |!ped! [C,,E,]G,, E,G, C2!ped-up! |!ped! A,,,E,, C,E,A,E, | %46
 C,A, A,,A, E,2!ped-up! |!ped! D,,B,, F,D,F,D,!ped-up! |!ped! D,,A,, F,D,F,D,!ped-up! | %49
!ped! G,,,D,, B,,D,G,D, | B,G,D, G,3!ped-up! |"^ ma non pesante"!ped! [B,,,B,,]6!ped-up! | %52
!ped! [B,,,B,,]4 [B,,,B,,]2!ped-up! |!ped! G,,D, B,D,F,D,!ped-up! |!ped! [G,,E,]G,B, E3!ped-up! | %55
!ped! G,,,D,, B,,D,B,D | GD B,G, x2!ped-up! |!ped! [C,,G,,E,]4!ped-up! [B,,,G,,B,,]2 | %58
!ped! [A,,,A,,]E,,C, E,3!ped-up! |!ped! G,,,/D,,/G,,/A,,/B,,/D,/G,/A,/B,/[I:staff -1]D/A/G/ | %60
!p![I:staff +1] z6!ped-up! |] %61
V:3
 x2 | x6 | B,,6 | E,,6 | x6 | [D,,F,]6 | x6 | x6 | x6 ||[K:G] x6 | x6 | x6 | x6 | x6 | x6 | x6 | %16
 x6 | x6 | x6 | x6 | x6 | x6 | x6 | x6 | x6 | x6 | x6 | x6 | x6 | x6 | x6 | x6 | x6 | x6 | x6 | %35
 x6 | x6 | x6 | x6 | x6 | x6 | x6 | x6 | x6 | x6 | x6 | x6 | x6 | x6 | x6 | x6 | x6 | x6 | x6 | %54
 x6 | x6 | x6 | x6 | x6 | x6 | x6 |] %61
V:4
 x2 | x6 | x6 | x6 | x6 | x6 | [G,CG]6 | x4!8va(! x2 | x2!8va)! x4 ||[K:G] x6 | x6 | x6 | x6 | x6 | %14
 x6 | x6 | x6 | x6 | x6 | x6 | x6 | x6 | x6 | x6 | x6 | x6 | x6 | x6 | x6 | x6 | x6 | x6 | x6 | %33
 x6 | x6 | x6 | x6 | x6 | x6 | x6 | x6 | x6 | x6 | x6 | x6 | x6 | x6 | D2 [B,D]2 [B,D]2 | %48
 z2 [A,C]2 [A,C]2 | x4!8va(! x2 | x2!8va)! x4 | x6 | x6 | x6 | x6 | x4!8va(! x2 | x2!8va)! x4 | %57
 x6 | x6 | x6 |!8va(! !arpeggio![gbd']6!8va)! |] %61

